Le Bus/Assets.xcassets/bus.imageset/bus-1.svg

<?xml version="1.0" encoding="UTF-8"?>
<svg width="120px" height="126px" viewBox="0 0 120 126" version="1.1" xmlns="http://www.w3.org/2000/svg" xmlns:xlink="http://www.w3.org/1999/xlink">
    <title>autobus</title>
    <defs>
        <linearGradient x1="33.1011766%" y1="-2.8751701%" x2="44.8281442%" y2="30.2358655%" id="linearGradient-1">
            <stop stop-color="#D4D4D6" offset="0%"></stop>
            <stop stop-color="#A9A9AD" offset="100%"></stop>
            <stop stop-color="#A9A9AD" offset="100%"></stop>
        </linearGradient>
    </defs>
    <g id="Page-1" stroke="none" stroke-width="1" fill="none" fill-rule="evenodd">
        <g id="Home" transform="translate(-127.000000, -137.000000)">
            <rect id="Rectangle" fill="url(#linearGradient-1)" x="0" y="0" width="375" height="667"></rect>
            <g id="autobus" transform="translate(127.000000, 137.000000)" fill-rule="nonzero">
                <g id="Group" transform="translate(24.000000, 106.000000)" fill="#4D4D4D">
                    <path d="M14.9212993,0.0695091442 L14.9212993,16.7422145 C14.9212993,18.5022429 13.4363487,19.9275362 11.60625,19.9275362 L3.32861842,19.9275362 C1.49827303,19.9275362 0.0160361842,18.5022429 0.0160361842,16.7422145 L0.0160361842,0.0695091442 L14.9212993,0.0695091442 Z" id="Path"></path>
                    <path d="M74.9859375,0.0695091442 L74.9859375,16.7422145 C74.9859375,18.5022429 73.5009868,19.9275362 71.6708882,19.9275362 L63.3932566,19.9275362 C61.5629112,19.9275362 60.0806743,18.5022429 60.0806743,16.7422145 L60.0806743,0.0695091442 L74.9859375,0.0695091442 Z" id="Path"></path>
                </g>
                <g id="Group" transform="translate(27.000000, 106.000000)" fill="#666666">
                    <path d="M10.8113542,0.0695091442 L10.8113542,16.7422145 C10.8113542,18.5022429 9.34840278,19.9275362 7.54541667,19.9275362 L3.4540625,19.9275362 C1.65083333,19.9275362 0.190555556,18.5022429 0.190555556,16.7422145 L0.190555556,0.0695091442 L10.8113542,0.0695091442 Z" id="Path"></path>
                    <path d="M69.9861458,0.0695091442 L69.9861458,16.7422145 C69.9861458,18.5022429 68.5231944,19.9275362 66.7202083,19.9275362 L62.6288542,19.9275362 C60.825625,19.9275362 59.3653472,18.5022429 59.3653472,16.7422145 L59.3653472,0.0695091442 L69.9861458,0.0695091442 Z" id="Path"></path>
                </g>
                <g id="Group" transform="translate(24.000000, 106.000000)" fill="#4D4D4D">
                    <rect id="Rectangle" x="0.0152960526" y="0.0707777778" width="14.9050164" height="12.8283519"></rect>
                    <rect id="Rectangle" x="60.0799342" y="0.0707777778" width="14.9050164" height="12.8283519"></rect>
                </g>
                <path d="M114.106486,33 L68,33 L68,65 L114.10624,65 C117.361198,65 120,62.3333956 120,59.0435875 L120,38.9561635 C120,35.6668534 117.361444,33 114.106486,33 Z" id="Path" fill="#E9B44C"></path>
                <path d="M5.88010966,33 L52,33 L52,65 L5.88010966,65 C2.63269049,65 0,62.3333956 0,59.0435875 L0,38.9561635 C0,35.6668534 2.63269049,33 5.88010966,33 Z" id="Path" fill="#CD9934"></path>
                <path d="M96.8287115,0 L24.1707973,0 C17.4492699,0 12,5.45455572 12,12.1828489 L12,98.8171511 C12,105.545444 17.4492699,111 24.1710429,111 L96.8289571,111 C103.55073,111 109,105.545444 109,98.8171511 L109,12.1828489 C109,5.45455572 103.550485,0 96.8287115,0 Z" id="Path" fill="#E9B44C"></path>
                <path d="M20.2396109,98.8171511 L20.2396109,12.1828489 C20.2396109,5.45455572 25.5049149,0 31.9997627,0 L22.7599146,0 C16.265304,0 11,5.45455572 11,12.1828489 L11,98.8171511 C11,105.545444 16.265304,111 22.7601519,111 L32,111 C25.5049149,111 20.2396109,105.545444 20.2396109,98.8171511 Z" id="Path" fill="#CD9934"></path>
                <g id="Group" transform="translate(19.000000, 90.000000)" fill="#B7F3EC">
                    <ellipse id="Oval" cx="7.07587135" cy="6.46727586" rx="6.97369883" ry="6.44060345"></ellipse>
                    <ellipse id="Oval" cx="75.924614" cy="6.46727586" rx="6.97369883" ry="6.44060345"></ellipse>
                </g>
                <g id="Group" transform="translate(19.000000, 90.000000)" fill="#8EDDD6">
                    <path d="M8.7633,6.46461111 C8.7633,9.34748148 6.97539375,11.8201296 4.43356875,12.8589259 C1.89174375,11.822537 0.1038375,9.34724074 0.1038375,6.46461111 C0.1038375,3.57933333 1.89174375,1.10668519 4.43356875,0.0702962963 C6.97539375,1.10668519 8.7633,3.57933333 8.7633,6.46461111 Z" id="Path"></path>
                    <path d="M77.9127375,6.46461111 C77.9127375,9.34748148 76.1248313,11.8201296 73.5830063,12.8589259 C71.0411813,11.822537 69.253275,9.34724074 69.253275,6.46461111 C69.253275,3.57933333 71.0411813,1.10668519 73.5830063,0.0702962963 C76.1248313,1.10668519 77.9127375,3.57933333 77.9127375,6.46461111 Z" id="Path"></path>
                </g>
                <g id="Group" transform="translate(17.000000, 88.000000)" fill="#CD9934">
                    <path d="M9.13430168,17.8601351 C7.94482682,17.8601351 6.78902793,17.6331892 5.69935196,17.1861081 C2.32610056,15.8081351 0.144782123,12.5802973 0.144782123,8.96448649 C0.144782123,5.34818919 2.32634637,2.12083784 5.70254749,0.741405405 C6.78878212,0.295297297 7.94458101,0.0685945946 9.13454749,0.0685945946 C14.0915531,0.0685945946 18.1243128,4.05924324 18.1243128,8.96448649 C18.1243128,13.8697297 14.0913073,17.8601351 9.13430168,17.8601351 Z M9.13430168,3.88094595 C8.45389944,3.88094595 7.79488268,4.00986486 7.17593296,4.26405405 C5.24386592,5.05313514 3.99736313,6.89764865 3.99736313,8.96424324 C3.99736313,11.0305946 5.24386592,12.8751081 7.17249162,13.662973 C7.79512849,13.9183784 8.45414525,14.0475405 9.13430168,14.0475405 C11.9667709,14.0475405 14.2712402,11.7671351 14.2712402,8.96424324 C14.2712402,6.16135135 11.9665251,3.88094595 9.13430168,3.88094595 Z" id="Shape"></path>
                    <path d="M78.8681564,17.8601351 C77.6786816,17.8601351 76.5228827,17.6331892 75.4332067,17.1861081 C72.0599553,15.8081351 69.8786369,12.5802973 69.8786369,8.96448649 C69.8786369,5.34818919 72.0602011,2.12083784 75.4364022,0.741405405 C76.5226369,0.295297297 77.6784358,0.0685945946 78.8684022,0.0685945946 C83.8254078,0.0685945946 87.8581676,4.05924324 87.8581676,8.96448649 C87.8581676,13.8697297 83.825162,17.8601351 78.8681564,17.8601351 Z M78.8681564,3.88094595 C78.1877542,3.88094595 77.5287374,4.00986486 76.9097877,4.26405405 C74.9777207,5.05313514 73.7312179,6.89764865 73.7312179,8.96424324 C73.7312179,11.0305946 74.9777207,12.8751081 76.9063464,13.662973 C77.5289832,13.9183784 78.188,14.0475405 78.8681564,14.0475405 C81.7006257,14.0475405 84.005095,11.7671351 84.005095,8.96424324 C84.005095,6.16135135 81.7006257,3.88094595 78.8681564,3.88094595 Z" id="Shape"></path>
                </g>
                <path d="M109,16.8115675 L109,74.1884325 C109,77.948965 105.946611,81 102.179847,81 L18.8201533,81 C15.0533895,81 12,77.948965 12,74.1884325 L12,16.8115675 C12,13.0483383 15.0533895,10 18.8201533,10 L102.179847,10 C105.946611,10 109,13.0483383 109,16.8115675 Z" id="Path" fill="#8EDDD6"></path>
                <path d="M21,10 C20.8787619,10.6788522 20.8157483,11.378298 20.8157483,12.0929438 L20.8157483,81 L18.0003025,81 C14.1340424,81 11,77.948965 11,74.1884325 L11,16.8115675 C11,13.0483383 14.1340424,10 18.0003025,10 L21,10 Z" id="Path" fill="#6BB5AD"></path>
                <path d="M99,10 C99.1212381,10.6788522 99.1842517,11.378298 99.1842517,12.0929438 L99.1842517,81 L101.999698,81 C105.865958,81 109,77.948965 109,74.1884325 L109,16.8115675 C109,13.0483383 105.865958,10 101.999698,10 L99,10 Z" id="Path" fill="#B7F3EC"></path>
                <path d="M109,16.8374554 L109,28 L12,28 L12,16.8374554 C12,13.0599237 15.0533817,10 18.820136,10 L102.179618,10 C105.946618,10 109,13.0599237 109,16.8374554 Z" id="Path" fill="#E6E6E6"></path>
                <path d="M21,10 C20.878765,10.6814323 20.815753,11.3835364 20.815753,12.1008982 L20.815753,28 L11,28 L11,16.8374554 C11,13.0599237 14.1339635,10 18.000126,10 C18.0003781,10 21,10 21,10 Z" id="Path" fill="#B3B3B3"></path>
                <path d="M109,16.8374554 L109,28 L99.1842517,28 L99.1842517,12.1008982 C99.1842517,11.3835364 99.120986,10.6814323 99,10 L101.999698,10 C105.865958,10 109,13.0599237 109,16.8374554 Z" id="Path" fill="#F2F2F2"></path>
                <path d="M72.6589609,90 L46.9514539,90 C42.816401,90 39.4641684,93.3061342 39.4641684,97.3843237 L39.4641684,100.814774 C39.4641684,105.887492 35.2945614,110 30.1508699,110 L24,110 L96,110 L89.459545,110 C84.3160968,110 80.1462465,105.887732 80.1462465,100.814774 L80.1462465,97.3843237 C80.1464898,93.3061342 76.7942572,90 72.6589609,90 Z" id="Path" fill="#CD9934"></path>
                <path d="M72.0350371,106 L48.9649629,106 C47.3277493,106 46,104.742053 46,103.189871 L46,99.8101285 C46,98.2584124 47.3272581,97 48.9649629,97 L72.0350371,97 C73.6722507,97 75,98.2579469 75,99.8101285 L75,103.189871 C75,104.74182 73.6724963,106 72.0350371,106 Z" id="Path" fill="#4D4D4D"></path>
            </g>
        </g>
    </g>
</svg>

<?xml version="1.0" encoding="utf-8"?>
<!-- Generator: Adobe Illustrator 23.1.1, SVG Export Plug-In . SVG Version: 6.00 Build 0)  -->
<svg version="1.1" id="Calque_1" xmlns="http://www.w3.org/2000/svg" xmlns:xlink="http://www.w3.org/1999/xlink" x="0px" y="0px"
	 viewBox="0 0 120 126" style="enable-background:new 0 0 120 126;" xml:space="preserve">
<style type="text/css">
	.st0{fill:#4D4D4D;}
	.st1{fill:#666666;}
	.st2{fill:#E9B44C;}
	.st3{fill:#CD9934;}
	.st4{fill:#B7F3EC;}
	.st5{fill:#8EDDD6;}
	.st6{fill:#6BB5AD;}
	.st7{fill:#E6E6E6;}
	.st8{fill:#B3B3B3;}
	.st9{fill:#F2F2F2;}
</style>
<title>autobus</title>
<g id="Page-1">
	<g id="Home" transform="translate(-127.000000, -137.000000)">
		<g id="autobus" transform="translate(127.000000, 137.000000)">
			<g id="Group" transform="translate(24.000000, 106.000000)">
				<path id="Path" class="st0" d="M14.9,0.1v16.7c0,1.8-1.5,3.2-3.3,3.2H3.3c-1.8,0-3.3-1.4-3.3-3.2V0.1H14.9z"/>
				<path class="st0" d="M75,0.1v16.7c0,1.8-1.5,3.2-3.3,3.2h-8.3c-1.8,0-3.3-1.4-3.3-3.2V0.1H75z"/>
			</g>
			<g transform="translate(27.000000, 106.000000)">
				<path class="st1" d="M10.8,0.1v16.7c0,1.8-1.5,3.2-3.3,3.2H3.5c-1.8,0-3.3-1.4-3.3-3.2V0.1H10.8z"/>
				<path class="st1" d="M70,0.1v16.7c0,1.8-1.5,3.2-3.3,3.2h-4.1c-1.8,0-3.3-1.4-3.3-3.2V0.1H70z"/>
			</g>
			<g transform="translate(24.000000, 106.000000)">
				<rect x="0" y="0.1" class="st0" width="14.9" height="12.8"/>
				<rect x="60.1" y="0.1" class="st0" width="14.9" height="12.8"/>
			</g>
			<path class="st2" d="M114.1,33H68v32h46.1c3.3,0,5.9-2.7,5.9-6V39C120,35.7,117.4,33,114.1,33z"/>
			<path class="st3" d="M5.9,33H52v32H5.9C2.6,65,0,62.3,0,59V39C0,35.7,2.6,33,5.9,33z"/>
			<path class="st2" d="M96.8,0H24.2C17.4,0,12,5.5,12,12.2v86.6c0,6.7,5.4,12.2,12.2,12.2h72.7c6.7,0,12.2-5.5,12.2-12.2V12.2
				C109,5.5,103.6,0,96.8,0z"/>
			<path class="st3" d="M20.2,98.8V12.2C20.2,5.5,25.5,0,32,0h-9.2C16.3,0,11,5.5,11,12.2v86.6c0,6.7,5.3,12.2,11.8,12.2H32
				C25.5,111,20.2,105.5,20.2,98.8z"/>
			<g transform="translate(19.000000, 90.000000)">
				<ellipse id="Oval" class="st4" cx="7.1" cy="6.5" rx="7" ry="6.4"/>
				<ellipse class="st4" cx="75.9" cy="6.5" rx="7" ry="6.4"/>
			</g>
			<g transform="translate(19.000000, 90.000000)">
				<path class="st5" d="M8.8,6.5c0,2.9-1.8,5.4-4.3,6.4c-2.5-1-4.3-3.5-4.3-6.4c0-2.9,1.8-5.4,4.3-6.4C7,1.1,8.8,3.6,8.8,6.5z"/>
				<path class="st5" d="M77.9,6.5c0,2.9-1.8,5.4-4.3,6.4c-2.5-1-4.3-3.5-4.3-6.4c0-2.9,1.8-5.4,4.3-6.4C76.1,1.1,77.9,3.6,77.9,6.5
					z"/>
			</g>
			<g transform="translate(17.000000, 88.000000)">
				<path id="Shape" class="st3" d="M9.1,17.9c-1.2,0-2.3-0.2-3.4-0.7C2.3,15.8,0.1,12.6,0.1,9c0-3.6,2.2-6.8,5.6-8.2
					c1.1-0.4,2.2-0.7,3.4-0.7c5,0,9,4,9,8.9S14.1,17.9,9.1,17.9z M9.1,3.9c-0.7,0-1.3,0.1-2,0.4C5.2,5.1,4,6.9,4,9
					c0,2.1,1.2,3.9,3.2,4.7c0.6,0.3,1.3,0.4,2,0.4c2.8,0,5.1-2.3,5.1-5.1S12,3.9,9.1,3.9z"/>
				<path class="st3" d="M78.9,17.9c-1.2,0-2.3-0.2-3.4-0.7c-3.4-1.4-5.6-4.6-5.6-8.2c0-3.6,2.2-6.8,5.6-8.2
					c1.1-0.4,2.2-0.7,3.4-0.7c5,0,9,4,9,8.9S83.8,17.9,78.9,17.9z M78.9,3.9c-0.7,0-1.3,0.1-2,0.4C75,5.1,73.7,6.9,73.7,9
					c0,2.1,1.2,3.9,3.2,4.7c0.6,0.3,1.3,0.4,2,0.4C81.7,14,84,11.8,84,9S81.7,3.9,78.9,3.9z"/>
			</g>
			<path class="st5" d="M109,16.8v57.4c0,3.8-3.1,6.8-6.8,6.8H18.8c-3.8,0-6.8-3.1-6.8-6.8V16.8c0-3.8,3.1-6.8,6.8-6.8h83.4
				C105.9,10,109,13,109,16.8z"/>
			<path class="st6" d="M21,10c-0.1,0.7-0.2,1.4-0.2,2.1V81H18c-3.9,0-7-3.1-7-6.8V16.8c0-3.8,3.1-6.8,7-6.8H21z"/>
			<path class="st4" d="M99,10c0.1,0.7,0.2,1.4,0.2,2.1V81h2.8c3.9,0,7-3.1,7-6.8V16.8c0-3.8-3.1-6.8-7-6.8H99z"/>
			<path class="st7" d="M109,16.8V28H12V16.8c0-3.8,3.1-6.8,6.8-6.8h83.4C105.9,10,109,13.1,109,16.8z"/>
			<path class="st8" d="M21,10c-0.1,0.7-0.2,1.4-0.2,2.1V28H11V16.8c0-3.8,3.1-6.8,7-6.8C18,10,21,10,21,10z"/>
			<path class="st9" d="M109,16.8V28h-9.8V12.1c0-0.7-0.1-1.4-0.2-2.1h3C105.9,10,109,13.1,109,16.8z"/>
			<path class="st3" d="M72.7,90H47c-4.1,0-7.5,3.3-7.5,7.4v3.4c0,5.1-4.2,9.2-9.3,9.2H24h72h-6.5c-5.1,0-9.3-4.1-9.3-9.2v-3.4
				C80.1,93.3,76.8,90,72.7,90z"/>
			<path class="st0" d="M72,106H49c-1.6,0-3-1.3-3-2.8v-3.4c0-1.6,1.3-2.8,3-2.8H72c1.6,0,3,1.3,3,2.8v3.4C75,104.7,73.7,106,72,106
				z"/>
		</g>
	</g>
</g>
</svg>
